!!!SOCIAL_FUNCTION:	songs connected with ceremonies
!!!PDT:	1929
!!!OTL: No_95_Clouds_Roll_Toward_Me.krn
!!!REG: Southwest
!!!LANG: Non-Tone
!!!LING_GROUP: Uto-Aztecan
**kern
*staff1
*clefF4
*k[b-e-a-]
*M2/4
8.B-\L
16B-\Jk
=1
8f\L
8f\J
4f\
=2
4f\
8e-\
8r
=3||
*M3/4
8.g;\L
16e-\Jk
8.e-\L
16e-\Jk
8.e-\L
16e-\Jk
=4||
*M2/4
8.e-\L
16c\Jk
8.e-\L
16B-\Jk
=5
8.B-\L
16B-\Jk
8B-\
8r
=6
8.e-\L
16e-\Jk
(8.e-\L
16B-\Jk)
=7
8.B-\L
16B-\Jk
8B-\L
8B-\J
=8
8.B-\L
16B-\Jk
8B-\L
8B-\J
=9
8B-\L
8B-\J
8A-\
8r
=10
16c\LK
8.B-\J
4c\
=11
8.B-\L
16B-\Jk
4B-\
=12
8.B-\L
16B-\Jk
4B-\
=13
8.B-\L
16B-\Jk
8B-\L
8B-\J
=14
8.B-\L
16B-\Jk
8B-\
8r
=15||
*M3/4
8.B-\L
16B-\Jk
16B-\LK
8.B-\J
8.A-\L
16B-\Jk
=16||
*M2/4
8B-\L
8B-\J
8.A-\L
16B-\Jk
=17
8.B-\L
16B-\Jk
8.B-\L
16B-\Jk
=18
8.B-\L
16B-\Jk
4B-\
==
*-
